X:118
T:A Paspe.
% The 's' here is a long 's'.  Mr Malchair's explanation of title is below.
T:John Malchair's Third Collection of Tunes
%%VWML:Malchair-3619-p118
F:https://www.vwml.org/record/Malchair/3619/p118
F:www.vwml.org/topics/historic-dance-and-tune-books/Malchair
Z:Eric Conrad Feb 2020
W:Ed.1795.
W:This must mean Pa\u017fse-Pied [= "passe-pied"]. but is not the Character
W:of that dance according to Mr. Rousseau.
M:6/4
L:1/4
K:C
% beaming exactly as in MS. Spaces below do not necessarily reflect Malchair's intent.
% both strains have exactly 7 measures in MS.
Gcc/d/ ed>c | def gec | c/d/e/f/ d/e/f/g/ ag/f/ | e/d/e/f/g f/e/dB |
B/c/d/B/ e/d/c/B/ Af | fe f/e/d/c/ B>c | dBc ^FG2 ||
B>A G/A/B/c/ dG | GA/B/ c/B/c/d/ ec | cd/e/ f/e/f/g/ af | f/g/ag fe2 |
f2 d>c B2 | e2 c>B Ad/c/ | B/c/d/e/ dB c2 |]
W:\u00a0% Using this W: as a space between tunes
T:The Maid's last Wish.
T:John Malchair's Third Collection of Tunes
F:https://www.vwml.org/record/Malchair/3619/p118
F:www.vwml.org/topics/historic-dance-and-tune-books/Malchair
% Z:Eric Conrad Feb 2020
W:1695. Transposed a Note lower.
M:6/4
L:1/4
K:Bb
f | d2c B2A | (BF)_A G2g | f2e (dB)d | f3 F2f |
d2c B2A | (BA)_A G2e | d2c c2B | B3- B2 ||
F | D2E F2B | (GE)B e2d | cBA G2c | A3- A2f |
dB2 b2f | _a3 g2f | edc c2B | B3- B2 |]
W:\u00a0% Using this W: as a space between tunes
T:Bishop of Chester's Jigg.
T:John Malchair's Third Collection of Tunes
F:https://www.vwml.org/record/Malchair/3619/p118
F:www.vwml.org/topics/historic-dance-and-tune-books/Malchair
% Z:Eric Conrad Feb 2020
W:D.M. Ed.1696. 2d.part.p.10. % i.e. The Dancing Master.
M:9/4   % time signature denominator is unclear (9/8? 9/4?); scoring is 9/4
L:1/4
K:F
% barring and beaming as in MS.
% bar line at the end of measure 4 as found in MS.
F2c cAc c2A | F2c cAc d/e/fc | F2c cAc d2e | fcd cAF | G2F ||
fcf fcf e2c | d>ed f>g a/f/ g2f | fcf fba g2f | (d/e/)fd cAF G2F |]


